app/assets/images/heroicons/micro/map.svg

<svg width="16" height="16" viewBox="0 0 16 16" fill="none" xmlns="http://www.w3.org/2000/svg">
<path fill-rule="evenodd" clip-rule="evenodd" d="M5.37005 2.25672C5.73828 2.03011 6.19746 2.0099 6.58419 2.20326L9.96225 3.89229L12.0949 2.5799C12.9277 2.06738 14 2.66657 14 3.64447V10.9703C14 11.4044 13.7748 11.8074 13.4051 12.0349L10.63 13.7427C10.2617 13.9693 9.80254 13.9895 9.41581 13.7961L6.03775 12.1071L3.90512 13.4195C3.07228 13.932 2 13.3328 2 12.3549V5.02909C2 4.59501 2.22519 4.19201 2.59488 3.96451L5.37005 2.25672ZM6 4C6.41421 4 6.75 4.33579 6.75 4.75V9.25C6.75 9.66421 6.41421 10 6 10C5.58579 10 5.25 9.66421 5.25 9.25V4.75C5.25 4.33579 5.58579 4 6 4ZM10.75 6.75C10.75 6.33579 10.4142 6 10 6C9.58579 6 9.25 6.33579 9.25 6.75V11.25C9.25 11.6642 9.58579 12 10 12C10.4142 12 10.75 11.6642 10.75 11.25V6.75Z" fill="black"/>
</svg>

<svg xmlns="http://www.w3.org/2000/svg" viewBox="0 0 16 16" fill="currentColor" aria-hidden="true" data-slot="icon">
  <path fill-rule="evenodd" d="M5.37 2.257a1.25 1.25 0 0 1 1.214-.054l3.378 1.69 2.133-1.313A1.25 1.25 0 0 1 14 3.644v7.326c0 .434-.225.837-.595 1.065l-2.775 1.708a1.25 1.25 0 0 1-1.214.053l-3.378-1.689-2.133 1.313A1.25 1.25 0 0 1 2 12.354V5.029c0-.434.225-.837.595-1.064L5.37 2.257ZM6 4a.75.75 0 0 1 .75.75v4.5a.75.75 0 0 1-1.5 0v-4.5A.75.75 0 0 1 6 4Zm4.75 2.75a.75.75 0 0 0-1.5 0v4.5a.75.75 0 0 0 1.5 0v-4.5Z" clip-rule="evenodd"/>
</svg>
